X: 37063
T: Silver Spear, The
R: reel
M: 4/4
K: Dmajor
A|:FA (3A^GA BAFA|dfed BcdA|FA (3A^GA BAFA|(3def ed B2 AG|
FA (3A^GA BAFA|dfed (3Bcd ef|g2 ge f2 fe|1 dfed (3BdB AG:|2 dfed BdAe||
fa ~a2 bfaf|gfed Bcde|fa ~a2 bfaf|gfed B2 Ae|
fa ~a2 bfaf|gfed (3Bcd ef|~g3 e ~f3 e|1 dfed B2 Ae:|2 dfed B2 AG||

